nextApp/public/icons/link-max.svg

<svg width="41" height="41" viewBox="0 0 41 41" fill="none" xmlns="http://www.w3.org/2000/svg">
<g clip-path="url(#clip0_312_321)">
<path fill-rule="evenodd" clip-rule="evenodd" d="M20.7405 31.4186C18.5807 31.4186 17.5769 31.1023 15.8323 29.8372C14.7287 31.2605 11.2342 32.3727 11.0818 30.4698C11.0818 29.0412 10.7665 27.834 10.4091 26.5162C9.98346 24.8926 9.5 23.0845 9.5 20.4646C9.5 14.2074 14.6184 9.5 20.6827 9.5C26.7522 9.5 31.508 14.4393 31.508 20.5226C31.5283 26.5117 26.7109 31.3867 20.7405 31.4186ZM20.8298 14.9085C17.8765 14.7556 15.5748 16.8062 15.0651 20.0218C14.6447 22.6838 15.3909 25.9258 16.0267 26.0945C16.3315 26.1683 17.0987 25.5462 17.5769 25.0665C18.3677 25.6145 19.2885 25.9436 20.2465 26.0207C23.3066 26.1683 25.9214 23.8314 26.1268 20.765C26.2465 17.6922 23.8903 15.0896 20.8298 14.9138L20.8298 14.9085Z" fill="white"/>
</g>
<circle cx="20.5" cy="20.5" r="20" stroke="white"/>
<defs>
<clipPath id="clip0_312_321">
<rect width="22" height="22" fill="white" transform="translate(9.5 9.5)"/>
</clipPath>
</defs>
</svg>

<svg xmlns="http://www.w3.org/2000/svg" width="41" height="41" fill="none" viewBox="0 0 41 41"><g clip-path="url(#a)"><path fill="#fff" fill-rule="evenodd" d="M20.74 31.419c-2.16 0-3.163-.317-4.908-1.582-1.103 1.424-4.598 2.536-4.75.633 0-1.429-.316-2.636-.673-3.954-.426-1.623-.909-3.431-.909-6.051C9.5 14.207 14.618 9.5 20.683 9.5c6.07 0 10.825 4.94 10.825 11.023.02 5.989-4.797 10.864-10.767 10.896m.09-16.51c-2.953-.153-5.255 1.897-5.765 5.113-.42 2.662.326 5.904.962 6.073.304.073 1.072-.549 1.55-1.028.79.547 1.711.877 2.67.954 3.06.147 5.674-2.19 5.88-5.256.12-3.073-2.237-5.675-5.297-5.851z" clip-rule="evenodd"/></g><circle cx="20.5" cy="20.5" r="20" stroke="#fff"/><defs><clipPath id="a"><path fill="#fff" d="M9.5 9.5h22v22h-22z"/></clipPath></defs></svg>
